symbols/web/calendar_view_day/materialsymbolssharp/calendar_view_day_grad200_20px.svg

<svg xmlns="http://www.w3.org/2000/svg" height="20" width="20"><path d="M1.833 18.458v-2.291h16.334v2.291Zm0-3.687V5.229h16.334v9.542Zm2.292-2.292h11.75V7.521H4.125ZM1.833 3.833V1.542h16.334v2.291Zm2.292 8.646V7.521v4.958Z"/></svg>

<svg xmlns="http://www.w3.org/2000/svg" height="20" width="20"><path d="M1.833 18.458V16.167H18.167V18.458ZM1.833 14.771V5.229H18.167V14.771ZM4.125 12.479H15.875V7.521H4.125ZM1.833 3.833V1.542H18.167V3.833ZM4.125 12.479V7.521V12.479Z"/></svg>
